static/logo.svg

<svg width="128" height="52" viewBox="0 0 128 52" fill="none" xmlns="http://www.w3.org/2000/svg">
<path d="M105.682 30.9187L105.621 30.7195L105.682 30.9187L105.737 31.0989L105.682 30.9187Z" fill="white"/>
<path d="M99.7168 29.5645C99.731 29.5669 99.7475 29.5716 99.764 29.574C99.7475 29.5716 99.731 29.5693 99.7168 29.5645Z" fill="white"/>
<path d="M109.377 28.5662L109.766 29.3725L110.201 30.2666L109.377 28.5662Z" fill="white"/>
<path d="M127.999 0L77.0244 4.53453V8.70145L88.493 15.0123C88.4316 15.5459 88.4009 16.0843 88.4009 16.6298C88.4009 19.535 89.2672 22.3335 90.8769 24.7193C90.9807 24.8759 91.0893 25.0276 91.2002 25.1794C91.6015 25.7273 92.0405 26.2514 92.5196 26.7494C93.0696 27.3186 93.6596 27.838 94.278 28.3052C94.8988 28.7724 95.5526 29.1875 96.2323 29.5456C97.0584 29.9819 97.9223 30.3329 98.8145 30.6009L99.1095 29.427C97.6556 29.076 96.5698 28.6586 96.145 28.4807C96.0152 28.4262 95.9467 28.3953 95.9467 28.3953C95.9467 28.3953 95.9703 28.4048 96.0105 28.4238C96.7421 28.7297 103.707 31.3764 109.993 24.4252C116.703 17.0045 111.454 7.28323 111.454 7.28323C111.456 7.2856 119.59 14.6115 113.189 24.8545C112.325 26.2348 111.312 27.2712 110.217 28.0372C110.12 28.1036 110.023 28.1677 109.927 28.2293C110.023 28.1653 110.123 28.1036 110.219 28.0372L110.658 28.8056C111.536 28.2815 112.296 27.6151 112.943 26.8253C113.236 26.5312 113.155 26.6 113.417 26.2846C114.225 25.3075 114.921 24.1857 115.421 23.0379C116.028 21.6481 116.403 20.154 116.528 18.6053C116.559 18.2211 116.576 17.8322 116.576 17.4432C116.576 15.9704 116.351 14.5285 115.924 13.1506L127.999 4.53453V0Z" fill="white"/>
<path d="M10.5502 11.5688C7.92326 11.7063 5.56298 12.8257 3.54023 14.9033C1.51039 16.9903 0.337339 19.4805 0.0635474 22.2956C-0.000179972 22.9193 -0.0167019 23.5383 0.0139817 24.1383C0.148517 26.5977 1.00294 28.578 2.55128 30.0223C4.13974 31.5022 6.20026 32.1544 8.6691 31.9647C11.1474 31.7726 13.2528 30.9828 14.9285 29.6168L15.056 29.5124L15.4006 25.8151L14.7043 26.4459C12.9105 28.0728 10.9397 28.9788 8.85321 29.1329C7.18685 29.2563 5.84622 28.7938 4.76049 27.7171C3.71253 26.6831 3.13426 25.2791 3.03985 23.5478C3.01625 23.1256 3.02805 22.6845 3.07054 22.2339C3.26408 20.2346 4.11378 18.4227 5.59131 16.8575C7.05704 15.3041 8.67619 14.4693 10.4015 14.372C12.4998 14.2534 14.2818 14.9056 15.698 16.3025L16.2432 16.8385L16.5737 13.2858L16.4061 13.153C14.9026 11.9791 12.9341 11.4431 10.5502 11.5688Z" fill="white"/>
<path d="M30.0272 12.6051L18.9103 13.2194L18.6719 15.8092L22.9841 15.5578L21.5821 30.3139L24.176 30.1147L25.5639 15.406L29.8006 15.1593L30.0272 12.6051Z" fill="white"/>
<path d="M39.414 13.1862C38.5832 12.5056 37.4101 12.1996 35.9255 12.2803L31.382 12.5317L29.7959 29.6855L32.3143 29.4911L32.987 22.5802L35.2387 22.426C36.8767 22.3146 38.2008 21.7335 39.178 20.7517C40.1008 19.8244 40.6319 18.6054 40.7617 17.1563C40.7924 16.8053 40.7971 16.4591 40.7782 16.146C40.7074 14.8511 40.2472 13.8479 39.414 13.1862ZM33.6526 14.6827L35.6494 14.5665C37.894 14.4361 38.2197 15.5934 38.2669 16.4211C38.2787 16.6179 38.274 16.8219 38.2551 17.0377C38.0946 18.8449 37.0372 19.7817 35.0168 19.9121L33.1805 20.0307L33.6526 14.6827Z" fill="white"/>
<path d="M44.5545 23.3794L45.5718 11.7466L43.1407 11.8818L41.5381 30.2428L52.5747 16.6772L51.5929 28.2649L53.9673 28.0823L55.4897 10.0082L44.5545 23.3794Z" fill="white"/>
<path d="M64.3386 22.9525L59.5944 9.51968L55.707 27.7028L58.0437 27.5226L60.1019 17.4907L63.942 28.2459L69.4934 16.9262L69.8663 26.6166L72.1062 26.4459L71.2494 8.83191L64.3386 22.9525Z" fill="white"/>
<path d="M32.0308 35.126C30.9687 34.5616 29.5691 34.3457 27.872 34.488L27.3174 34.5331L27.5156 32.5078L22.9509 32.873L22.7526 34.9102L22.2876 34.9481C20.3333 35.1094 18.674 35.6762 17.3476 36.632C15.5113 37.9577 14.4421 39.9712 14.1659 42.625C14.1116 43.1681 14.0928 43.6804 14.114 44.1453C14.2013 46.1635 14.992 47.5699 16.4648 48.3264C17.5671 48.8909 19.0092 49.0901 20.7464 48.9146L21.3105 48.8576L21.006 52L25.6038 51.5233L25.9012 48.3952L26.3591 48.3501C28.2827 48.1557 29.9113 47.5651 31.1977 46.5951C32.9466 45.2789 33.9686 43.2915 34.2306 40.6874C34.2825 40.1586 34.2967 39.6653 34.2778 39.2194C34.1929 37.2344 33.4564 35.8944 32.0308 35.126ZM21.8651 45.0488L21.3081 45.101C21.1712 45.1152 21.0367 45.12 20.9092 45.1152C20.3852 45.1034 19.9274 44.954 19.545 44.6765C18.988 44.2638 18.6882 43.6282 18.6504 42.7839C18.641 42.5705 18.6504 42.3452 18.6764 42.1104C18.7897 41.0361 19.1839 40.1823 19.8542 39.5728C20.4136 39.0581 21.091 38.7617 21.8675 38.6929L22.5237 38.6336L21.8651 45.0488ZM29.9467 41.1807C29.8429 42.2195 29.4581 43.0614 28.7996 43.678C28.2426 44.2022 27.5723 44.5057 26.8052 44.5793L26.1514 44.6409L26.7957 38.2613L27.3504 38.2115C28.0396 38.1522 28.6226 38.2921 29.0829 38.6313C29.6328 39.0226 29.9326 39.6534 29.9703 40.5048C29.9798 40.7254 29.9703 40.9531 29.9467 41.1807Z" fill="white"/>
<path d="M45.1498 49.2158L45.485 45.2671L40.3774 45.7675L40.6205 42.8955L45.3481 42.4449L45.6526 38.7499L40.932 39.1744L41.1704 36.402L46.2639 35.9561L46.5967 31.7939L37.0494 32.5742L35.5459 50.3708L45.1498 49.2158Z" fill="white"/>
<path d="M56.436 34.6873C57.6539 34.5829 58.6853 34.9102 59.5161 35.6644L59.889 31.0564C59.037 30.6864 58.1306 30.4919 57.1912 30.4801C56.9505 30.4777 56.705 30.4848 56.4596 30.5038C54.3377 30.6769 52.4188 31.6303 50.7595 33.3378C48.9657 35.1759 47.9437 37.4597 47.7171 40.1302C47.6699 40.6827 47.6605 41.2187 47.6888 41.7191C47.8139 43.8726 48.5503 45.5706 49.8838 46.7636C51.2032 47.9446 52.9097 48.4332 54.9584 48.2174C56.056 48.1035 57.2786 47.6932 58.598 46.996L58.9567 42.4875C58.0457 43.3271 56.9717 43.8109 55.7586 43.9318C54.7413 44.0315 53.8845 43.7611 53.2189 43.1279C52.5604 42.5018 52.1945 41.629 52.1308 40.5357C52.1167 40.2677 52.1214 39.9926 52.145 39.7127C52.2536 38.4155 52.6949 37.2818 53.4526 36.3451C54.2621 35.349 55.2653 34.7916 56.436 34.6873Z" fill="white"/>
<path d="M72.6923 33.6887L72.9873 29.8942L61.6084 30.7717L61.2969 34.6279L65.0143 34.3054L64.0041 46.984L68.0732 46.5595L69.0669 33.9473L72.6923 33.6887Z" fill="white"/>
<path d="M77.0244 18.9207V18.9421L77.9166 19.3144L77.0244 18.9207Z" fill="#0FC6EF"/>
<path d="M115.925 13.1506C116.352 14.5285 116.576 15.9705 116.576 17.4432C116.576 17.8346 116.56 18.2211 116.529 18.6053L128 10.7837V9.22323V4.53455L115.925 13.1506Z" fill="#31A2FF"/>
<path d="M90.8769 24.7217C89.2672 22.3335 88.401 19.5374 88.401 16.6322C88.401 16.0867 88.4316 15.5483 88.493 15.0147L77.0244 8.70386V11.2462V18.9231L77.9166 19.3168L90.8769 24.7217Z" fill="#31A2FF"/>
<path d="M94.2784 28.3076L91.5452 30.2215L80.2041 38.2494C80.7257 38.2542 81.4456 38.5601 82.208 39.0985L93.9055 31.1298L96.2304 29.5456C95.553 29.1899 94.9015 28.7748 94.2784 28.3076Z" fill="#31A2FF"/>
<path d="M97.6779 35.2185L98.478 31.9765L97.6 32.5552L91.1328 36.8241L97.6779 35.2185Z" fill="#31A2FF"/>
<path d="M121.07 34.8603C120.303 35.6856 119.741 36.5608 119.449 37.3149L120.636 39.0984L120.77 39.1695C121.589 38.9016 122.614 38.1972 123.546 37.194C125.109 35.5125 125.821 33.6247 125.137 32.982C124.658 32.5314 123.619 32.8113 122.503 33.5986C122.477 33.6152 122.453 33.6342 122.427 33.6508C121.974 33.9757 121.512 34.3836 121.07 34.8603Z" fill="white"/>
<path d="M120.697 39.1909C120.718 39.1838 120.737 39.179 120.758 39.1719L120.692 39.1814L120.697 39.1909Z" fill="white"/>
<path d="M96.9575 8.00894C94.0591 7.15042 90.7901 9.91809 89.6572 14.1917C88.5242 18.4654 89.9522 22.6252 92.8506 23.4837C95.7491 24.3422 99.018 21.5746 100.151 17.3009C101.284 13.0273 99.8559 8.86747 96.9575 8.00894ZM98.3878 16.7792C97.5193 20.0496 95.0079 22.177 92.7916 21.52C90.573 20.8631 89.4754 17.6685 90.344 14.3981C91.2126 11.1276 93.7239 9.00028 95.9402 9.65721C98.1589 10.3118 99.2564 13.5087 98.3878 16.7792Z" fill="#0F89FF"/>
<path d="M91.6158 14.7727C91.0234 17.0067 91.7739 19.191 93.2892 19.6392C94.8045 20.0875 96.5204 18.636 97.1128 16.3996C97.7053 14.1656 96.9547 11.9837 95.4394 11.5331C93.9241 11.0848 92.2106 12.5386 91.6158 14.7727Z" fill="#0F89FF"/>
<path d="M120.69 39.1815L120.758 39.172L120.77 39.1696L120.768 39.1672L120.633 39.0984L120.69 39.1815Z" fill="#0FC6EF"/>
<path d="M112.285 31.6539L110.432 32.1045L106.422 33.0816L105.599 33.2809L110.822 34.7275L116.758 33.269L112.285 31.6539Z" fill="#0F89FF"/>
<path d="M109.993 24.4253C116.704 17.0045 111.454 7.28326 111.454 7.28326C110.293 6.03579 109.335 5.36462 109.335 5.36462C109.335 5.36462 114.027 16.2195 108.022 22.7723C101.152 30.2689 92.8955 26.0902 92.8955 26.0902C93.5186 26.842 94.1724 27.6246 96.0111 28.4238C96.7451 28.7298 103.708 31.3788 109.993 24.4253Z" fill="#0F89FF"/>
<path d="M105.603 33.2809H105.598L88.2336 37.5332L87.7285 38.7095L108.707 35.2114L110.821 34.7276L105.603 33.2809Z" fill="white"/>
<path d="M98.2112 4.55347L96.4292 4.95902C96.0445 5.04677 95.733 5.38828 95.7424 5.89818C95.7495 6.40807 96.0705 6.60729 96.4552 6.51954L98.2396 6.11399C98.6243 6.02624 98.9358 5.68473 98.9288 5.17483C98.9146 4.66731 98.596 4.46572 98.2112 4.55347Z" fill="#0F89FF"/>
<path d="M92.5196 26.7518C92.0405 26.2561 91.5991 25.7296 91.2002 25.1818C91.0893 25.03 90.9807 24.8759 90.8769 24.7217L77.9166 19.3144L77.0244 18.9421V24.6197L91.5472 30.2215L94.2804 28.3076C93.6597 27.8404 93.0696 27.321 92.5196 26.7518Z" fill="#0F89FF"/>
<path d="M116.529 18.6053C116.404 20.1564 116.029 21.6505 115.422 23.0379C114.92 24.1857 114.223 25.3075 113.418 26.2846L128.003 17.2132V15.5815V10.7838L116.529 18.6053Z" fill="#0F89FF"/>
<path d="M121.07 34.8603C121.512 34.3837 121.977 33.9757 122.427 33.6485C122.453 33.6295 122.477 33.6129 122.503 33.5963C123.386 32.9749 124.216 32.6714 124.764 32.7923L112.941 26.8277C112.295 27.6198 111.537 28.2839 110.657 28.808L112.283 31.6539L116.756 33.269L119.446 37.315C119.741 36.5608 120.303 35.6857 121.07 34.8603Z" fill="#31A2FF"/>
<path d="M119.536 37.4478L119.607 37.5521L119.536 37.4478Z" fill="#31A2FF"/>
<path d="M106.331 33.1054L105.918 31.6848L105.684 30.9187L105.361 29.861C103.607 30.0911 101.879 29.9582 100.392 29.695C99.9414 29.6144 99.5142 29.5242 99.113 29.427L98.8179 30.6009L98.4804 31.9741L97.6826 35.2161L97.777 35.1924L100.128 34.6161L101.86 34.1916L105.601 33.2738L106.357 33.0935L106.331 33.1054Z" fill="#0F89FF"/>
<path d="M100.391 29.6973C101.878 29.9582 103.606 30.0934 105.36 29.8634L105.683 30.9211L105.917 31.6871L106.33 33.1077L111.022 31.9646L109.766 29.3748L109.377 28.5685C109.662 28.4096 109.943 28.2341 110.219 28.042C111.315 27.2759 112.327 26.2395 113.191 24.8592C119.592 14.6162 111.459 7.28796 111.456 7.28796C111.456 7.28796 116.703 17.0092 109.995 24.43C103.71 31.3812 96.747 28.7345 96.013 28.4285C95.9705 28.4119 95.9492 28.4001 95.9492 28.4001C95.9492 28.4001 96.0177 28.4309 96.1475 28.4854C96.688 28.7084 98.3024 29.3274 100.391 29.6973Z" fill="#0060D3"/>
<path d="M108.707 35.2114L109.479 38.1901L85.9492 42.8551L87.7289 38.7095L108.707 35.2114Z" fill="#31A2FF"/>
<path d="M110.822 34.7276L108.707 35.2114L109.479 38.1902L85.9492 42.8527L85.47 43.9698C85.4488 44.0504 85.4205 44.1239 85.378 44.188C85.352 44.2307 85.3213 44.2686 85.2859 44.3042C85.2623 44.3279 85.234 44.3492 85.2057 44.3682C85.1254 44.4228 85.031 44.4607 84.9272 44.4797L84.9248 44.482L112.908 40.3554L110.822 34.7276Z" fill="#0F89FF"/>
<path d="M96.2324 29.548L93.9075 31.1322L82.21 39.1008C82.3233 39.1815 82.4365 39.2645 82.5498 39.3546C82.7221 39.4898 82.8944 39.6368 83.0644 39.7934C83.2367 39.9475 83.4066 40.1111 83.5766 40.2843C83.7984 40.512 84.0014 40.7444 84.1879 40.9768C84.2941 41.1096 84.3979 41.24 84.4923 41.3705C84.8629 41.8827 85.1367 42.3832 85.3066 42.829C85.3232 42.8693 85.342 42.912 85.3562 42.9523C85.453 43.2322 85.5002 43.4883 85.5002 43.7065C85.5002 43.8014 85.4884 43.8915 85.4695 43.9721L88.2334 37.5332L91.1318 36.8241L97.6013 32.5552L98.477 31.9765L98.8145 30.6033C97.9223 30.3353 97.0584 29.9844 96.2324 29.548Z" fill="#83CDFF"/>
<path d="M85.3774 44.1903C85.4576 44.0599 85.4978 43.8962 85.5001 43.7065C85.5025 43.4859 85.4529 43.2322 85.3561 42.9523C85.1933 42.4756 84.8983 41.9301 84.4923 41.3704C84.2303 41.01 83.9235 40.6424 83.5789 40.2842C83.1304 39.8194 82.6631 39.421 82.2123 39.1008C81.4476 38.5625 80.7277 38.2541 80.2084 38.2518C79.9677 38.2494 79.7671 38.3134 79.6278 38.4486C79.6136 38.4605 79.6018 38.4771 79.59 38.4889C79.0401 39.1316 79.8048 40.889 81.3343 42.4732C82.8354 44.0267 84.5277 44.8449 85.2098 44.3705C85.2381 44.3516 85.2641 44.3302 85.2901 44.3065C85.3207 44.2733 85.3514 44.233 85.3774 44.1903Z" fill="white"/>
<path d="M109.378 28.5661L111.023 31.9599L112.286 31.6516L110.218 28.0372C109.944 28.2317 109.661 28.4072 109.378 28.5661Z" fill="#0F89FF"/>
<path d="M113.415 26.287C113.153 26.6024 113.233 26.5336 112.941 26.8277L124.763 32.7923C124.91 32.8255 125.035 32.8848 125.136 32.9797C125.821 33.6248 125.108 35.5102 123.545 37.1917C122.613 38.1949 121.589 38.8992 120.77 39.1672L120.772 39.1696L120.758 39.172C120.737 39.1791 120.718 39.1838 120.697 39.1909L120.692 39.1815L120.635 39.0961L119.448 37.3126L116.757 33.2667L110.821 34.7276L112.908 40.3602L84.9243 44.4868L84.9266 44.4844C84.1312 44.6433 82.6584 43.8464 81.3319 42.4733C79.8025 40.889 79.0401 39.1317 79.5877 38.4889C79.5995 38.4747 79.6113 38.4605 79.6254 38.4486C79.7647 38.3111 79.9653 38.2494 80.2061 38.2518L91.5472 30.2239L77.0244 24.6221V40.9602V49.0735V49.0924L127.999 43.1326V43.0828V36.5632V35.5197V17.2156L113.415 26.287Z" fill="#0060D3"/>
<path d="M85.0752 44.4393C85.1224 44.4204 85.1649 44.399 85.205 44.3705C85.1672 44.399 85.1224 44.4204 85.0752 44.4393Z" fill="#0060D3"/>
</svg>

<svg width="128" height="52" fill="none" xmlns="http://www.w3.org/2000/svg"><path d="M105.682 30.919l-.061-.2.061.2.055.18-.055-.18zM99.717 29.564c.014.003.03.008.047.01-.016-.002-.033-.005-.047-.01zM109.377 28.566l.389.806.435.895-.824-1.7z" fill="#fff"/><path d="M127.999 0L77.024 4.535V8.7l11.469 6.311A14.423 14.423 0 0091.2 25.18c.401.548.84 1.072 1.32 1.57.55.57 1.14 1.089 1.758 1.556a14.464 14.464 0 004.536 2.296l.296-1.174a20.484 20.484 0 01-2.965-.946c-.13-.055-.198-.086-.198-.086l.063.029c.732.306 7.697 2.952 13.983-3.999 6.71-7.42 1.461-17.142 1.461-17.142.002.003 8.136 7.328 1.735 17.572-.864 1.38-1.877 2.416-2.972 3.182-.097.067-.194.13-.29.192.096-.064.196-.125.292-.192l.439.769a8.722 8.722 0 002.285-1.98c.293-.295.212-.226.474-.541a13.86 13.86 0 002.004-3.247c.607-1.39.982-2.884 1.107-4.433a14.48 14.48 0 00-.604-5.455l12.075-8.615V0zM10.55 11.569c-2.627.137-4.987 1.257-7.01 3.334C1.51 16.99.337 19.48.064 22.296a12.1 12.1 0 00-.05 1.842c.135 2.46.989 4.44 2.537 5.884 1.589 1.48 3.65 2.132 6.118 1.943 2.478-.192 4.584-.982 6.26-2.348l.127-.105.345-3.697-.697.63c-1.793 1.628-3.764 2.534-5.85 2.688-1.667.123-3.008-.34-4.094-1.416-1.047-1.034-1.626-2.438-1.72-4.17a8.812 8.812 0 01.03-1.313c.194-2 1.044-3.811 2.521-5.377 1.466-1.553 3.085-2.388 4.81-2.485 2.099-.119 3.88.534 5.297 1.93l.545.537.33-3.553-.167-.133c-1.503-1.174-3.472-1.71-5.856-1.584zM30.027 12.605l-11.117.614-.238 2.59 4.312-.251-1.402 14.756 2.594-.2 1.388-14.708 4.237-.247.226-2.554zM39.414 13.186c-.83-.68-2.004-.986-3.489-.906l-4.543.252-1.586 17.154 2.518-.195.673-6.91 2.252-.155c1.638-.111 2.962-.692 3.939-1.674.923-.928 1.454-2.147 1.584-3.596.03-.35.035-.697.016-1.01-.07-1.295-.53-2.298-1.364-2.96zm-5.761 1.497l1.996-.117c2.245-.13 2.57 1.027 2.618 1.855.012.197.007.4-.012.617-.16 1.807-1.218 2.744-3.238 2.874l-1.837.119.473-5.348zM44.554 23.38l1.018-11.633-2.431.135-1.603 18.36 11.037-13.565-.982 11.588 2.374-.183 1.523-18.074L44.554 23.38zM64.339 22.953L59.594 9.52l-3.887 18.183 2.337-.18 2.058-10.032 3.84 10.755 5.551-11.32.373 9.69 2.24-.17-.857-17.614-6.91 14.12zM32.03 35.126c-1.061-.564-2.46-.78-4.158-.638l-.555.045.199-2.025-4.565.365-.198 2.037-.465.038c-1.955.161-3.614.728-4.94 1.684-1.837 1.326-2.906 3.34-3.182 5.993a10.594 10.594 0 00-.052 1.52c.087 2.018.878 3.425 2.35 4.181 1.103.565 2.545.764 4.282.589l.565-.057L21.006 52l4.598-.477.297-3.128.458-.045c1.924-.194 3.552-.785 4.839-1.755 1.749-1.316 2.77-3.303 3.033-5.908.051-.528.066-1.022.047-1.468-.085-1.985-.822-3.325-2.247-4.093zm-10.165 9.923l-.557.052c-.137.014-.271.019-.399.014a2.364 2.364 0 01-1.364-.439c-.557-.412-.857-1.048-.895-1.892-.009-.213 0-.439.026-.674.114-1.074.508-1.928 1.178-2.537a3.34 3.34 0 012.014-.88l.656-.06-.659 6.416zm8.082-3.868c-.104 1.038-.489 1.88-1.147 2.497a3.305 3.305 0 01-1.995.901l-.654.062.645-6.38.554-.05c.69-.059 1.273.081 1.733.42.55.392.85 1.022.887 1.874.01.22 0 .448-.023.676zM45.15 49.216l.335-3.949-5.108.5.243-2.872 4.728-.45.305-3.695-4.721.424.238-2.772 5.094-.446.333-4.162-9.548.78-1.503 17.797 9.604-1.155zM56.436 34.687c1.218-.104 2.25.223 3.08.977l.373-4.608a6.952 6.952 0 00-2.698-.576 8.414 8.414 0 00-.731.024c-2.122.173-4.041 1.126-5.7 2.834-1.794 1.838-2.816 4.122-3.043 6.792a11.297 11.297 0 00-.028 1.59c.125 2.153.861 3.85 2.195 5.044 1.32 1.18 3.026 1.67 5.074 1.453 1.098-.114 2.32-.524 3.64-1.221l.359-4.509a5.413 5.413 0 01-3.198 1.445c-1.018.1-1.874-.17-2.54-.804-.659-.626-1.025-1.499-1.088-2.592a6.03 6.03 0 01.014-.823c.109-1.297.55-2.431 1.308-3.368.81-.996 1.812-1.553 2.983-1.658zM72.692 33.689l.295-3.795-11.379.878-.311 3.856 3.717-.323-1.01 12.679 4.07-.425.993-12.612 3.625-.258z" fill="#fff"/><path d="M77.024 18.92v.022l.893.372-.893-.393z" fill="#0FC6EF"/><path d="M115.925 13.15a14.48 14.48 0 01.604 5.455L128 10.784v-6.25l-12.075 8.617zM90.877 24.722a14.429 14.429 0 01-2.384-9.707L77.024 8.704v10.219l.893.394 12.96 5.405zM94.278 28.308l-2.733 1.913-11.34 8.028c.52.005 1.24.311 2.003.85l11.698-7.97 2.324-1.583a14.474 14.474 0 01-1.952-1.238zM97.678 35.218l.8-3.242-.878.58-6.467 4.268 6.545-1.605z" fill="#31A2FF"/><path d="M121.07 34.86c-.767.826-1.329 1.7-1.621 2.455l1.187 1.783.134.072c.819-.268 1.844-.973 2.776-1.976 1.563-1.681 2.275-3.57 1.591-4.212-.479-.45-1.518-.17-2.634.617-.026.016-.05.035-.076.052a9.14 9.14 0 00-1.357 1.21zM120.697 39.19l.061-.018-.066.01.005.009z" fill="#fff"/><path d="M96.957 8.009c-2.898-.859-6.167 1.91-7.3 6.183s.295 8.433 3.194 9.292c2.898.858 6.167-1.91 7.3-6.183 1.133-4.274-.295-8.434-3.194-9.292zm1.43 8.77c-.868 3.27-3.38 5.398-5.595 4.741-2.219-.657-3.317-3.851-2.448-7.122.869-3.27 3.38-5.398 5.596-4.74 2.219.654 3.316 3.85 2.448 7.121z" fill="#0F89FF"/><path d="M91.616 14.773c-.593 2.234.158 4.418 1.673 4.866 1.516.448 3.231-1.003 3.824-3.24.592-2.233-.158-4.415-1.674-4.866-1.515-.448-3.228 1.006-3.823 3.24z" fill="#0F89FF"/><path d="M120.69 39.181l.068-.009.012-.002-.002-.003-.135-.069.057.084z" fill="#0FC6EF"/><path d="M112.285 31.654l-1.853.45-4.01.978-.823.199 5.223 1.447 5.936-1.459-4.473-1.615zM109.993 24.425c6.711-7.42 1.461-17.142 1.461-17.142-1.161-1.247-2.119-1.918-2.119-1.918s4.692 10.854-1.313 17.407c-6.87 7.497-15.127 3.318-15.127 3.318.624.752 1.277 1.535 3.116 2.334.734.306 7.697 2.955 13.982-3.999z" fill="#0F89FF"/><path d="M105.603 33.28h-.005l-17.364 4.253-.505 1.176 20.978-3.498 2.114-.483-5.218-1.447z" fill="#fff"/><path d="M98.211 4.553l-1.782.406c-.385.088-.696.43-.687.94.007.51.328.708.713.62l1.785-.405c.384-.088.696-.43.689-.94-.014-.507-.333-.708-.718-.62zM92.52 26.752a14.787 14.787 0 01-1.643-2.03l-12.96-5.408-.893-.372v5.678l14.523 5.601 2.733-1.913c-.62-.468-1.21-.987-1.76-1.556zM116.529 18.605a13.81 13.81 0 01-1.107 4.433 14.029 14.029 0 01-2.004 3.247l14.585-9.072V10.784l-11.474 7.821z" fill="#0F89FF"/><path d="M121.07 34.86a9.457 9.457 0 011.433-1.264c.883-.621 1.713-.925 2.261-.804l-11.823-5.964a8.628 8.628 0 01-2.284 1.98l1.626 2.846 4.473 1.615 2.69 4.046c.295-.754.857-1.63 1.624-2.455zM119.536 37.448l.071.104-.071-.104z" fill="#31A2FF"/><path d="M106.331 33.105l-.413-1.42-.234-.766-.323-1.058c-1.754.23-3.482.097-4.969-.166-.45-.08-.878-.17-1.279-.268l-.295 1.174-.338 1.373-.797 3.242.094-.024 2.351-.576 1.732-.424 3.741-.918.756-.18-.026.011z" fill="#0F89FF"/><path d="M100.391 29.697c1.487.261 3.215.396 4.969.166l.323 1.058.234.766.413 1.42 4.692-1.142-1.256-2.59-.389-.806a9.99 9.99 0 00.842-.527c1.096-.766 2.108-1.803 2.972-3.183 6.401-10.243-1.732-17.571-1.735-17.571 0 0 5.247 9.721-1.461 17.142-6.285 6.951-13.248 4.305-13.982 3.998-.043-.016-.064-.028-.064-.028l.198.085c.541.223 2.155.842 4.244 1.212z" fill="#0060D3"/><path d="M108.707 35.211l.772 2.98-23.53 4.664 1.78-4.145 20.978-3.499z" fill="#31A2FF"/><path d="M110.822 34.728l-2.115.483.772 2.98-23.53 4.662-.479 1.117a.722.722 0 01-.184.334.725.725 0 01-.359.175l-.002.003 27.983-4.127-2.086-5.627z" fill="#0F89FF"/><path d="M96.232 29.548l-2.325 1.584-11.697 7.969a8.578 8.578 0 01.854.693 9.62 9.62 0 011.123 1.183c.107.133.21.263.305.394.37.512.645 1.012.815 1.458.016.04.035.083.05.123.096.28.143.536.143.755 0 .094-.012.184-.03.265l2.763-6.439 2.899-.709 6.47-4.269.875-.578.337-1.374a14.369 14.369 0 01-2.582-1.055z" fill="#83CDFF"/><path d="M85.377 44.19c.08-.13.12-.294.123-.483a2.28 2.28 0 00-.144-.755c-.163-.476-.458-1.022-.864-1.582-.262-.36-.569-.728-.913-1.086a9.836 9.836 0 00-1.367-1.183c-.764-.538-1.484-.847-2.004-.85-.24-.002-.44.062-.58.198-.014.012-.026.028-.038.04-.55.643.215 2.4 1.744 3.984 1.501 1.554 3.194 2.372 3.876 1.898a.678.678 0 00.08-.065.752.752 0 00.087-.116z" fill="#fff"/><path d="M109.378 28.566l1.645 3.394 1.263-.308-2.068-3.615c-.274.195-.557.37-.84.53z" fill="#0F89FF"/><path d="M113.415 26.287c-.262.315-.182.247-.474.54l11.822 5.965a.78.78 0 01.373.188c.685.645-.028 2.53-1.591 4.212-.932 1.003-1.956 1.707-2.775 1.975l.002.003-.014.002-.061.019-.005-.01-.057-.085-1.187-1.783-2.691-4.046-5.936 1.46 2.087 5.633-27.984 4.127.003-.003c-.796.16-2.269-.638-3.595-2.01-1.53-1.585-2.292-3.342-1.744-3.985.012-.014.023-.028.037-.04.14-.138.34-.2.581-.197l11.341-8.028-14.523-5.602V49.092L128 43.132V17.217l-14.584 9.071zM85.075 44.44z" fill="#0060D3"/></svg>
